public/game/watch.svg

<svg width="52" height="48" viewBox="0 0 52 48" fill="none" xmlns="http://www.w3.org/2000/svg">
<path d="M33.8533 25.4147L28.4401 22.5425V12.0518C28.4401 11.4227 28.1682 10.8194 27.6844 10.3746C27.2006 9.92975 26.5443 9.67985 25.8601 9.67985C25.1758 9.67985 24.5196 9.92975 24.0357 10.3746C23.5519 10.8194 23.2801 11.4227 23.2801 12.0518V23.9114C23.2799 24.3279 23.3991 24.737 23.6256 25.0977C23.852 25.4583 24.1778 25.7578 24.5701 25.966L31.2733 29.5239C31.5668 29.6798 31.8908 29.7811 32.2269 29.8218C32.5629 29.8626 32.9044 29.8421 33.2319 29.7615C33.5593 29.6809 33.8663 29.5418 34.1352 29.3521C34.4041 29.1623 34.6298 28.9258 34.7992 28.6559C34.9687 28.386 35.0787 28.088 35.1228 27.7791C35.167 27.4701 35.1445 27.1561 35.0567 26.8551C34.9688 26.5541 34.8173 26.272 34.6108 26.0249C34.4044 25.7777 34.1469 25.5704 33.8533 25.4147ZM25.8601 0.192139C20.7573 0.192139 15.7691 1.58325 11.5264 4.18956C7.28357 6.79587 3.97672 10.5003 2.02398 14.8344C0.0712373 19.1686 -0.439689 23.9377 0.55581 28.5388C1.55131 33.1399 4.00852 37.3663 7.61671 40.6835C11.2249 44.0007 15.822 46.2597 20.8267 47.175C25.8314 48.0902 31.019 47.6204 35.7333 45.8252C40.4476 44.0299 44.477 40.9898 47.312 37.0892C50.1469 33.1885 51.6601 28.6027 51.6601 23.9114C51.6525 17.6228 48.9318 11.5938 44.095 7.14708C39.2582 2.70037 32.7003 0.199132 25.8601 0.192139ZM25.8601 42.8869C21.7779 42.8869 17.7873 41.774 14.3931 39.6889C10.9989 37.6039 8.35339 34.6403 6.7912 31.173C5.229 27.7057 4.82026 23.8904 5.61666 20.2095C6.41306 16.5286 8.37883 13.1475 11.2654 10.4938C14.1519 7.84001 17.8296 6.03278 21.8334 5.3006C25.8372 4.56843 29.9872 4.94421 33.7587 6.38041C37.5301 7.81662 40.7536 10.2487 43.0216 13.3692C45.2896 16.4897 46.5001 20.1584 46.5001 23.9114C46.4938 28.9423 44.3172 33.7654 40.4478 37.3227C36.5784 40.8801 31.3322 42.8811 25.8601 42.8869Z" fill="white"/>
</svg>

<svg width="52" height="48" fill="none" xmlns="http://www.w3.org/2000/svg"><path d="m33.853 25.415-5.413-2.872V12.052a2.28 2.28 0 0 0-.756-1.677 2.7 2.7 0 0 0-1.824-.695 2.7 2.7 0 0 0-1.824.695 2.28 2.28 0 0 0-.756 1.677v11.86c0 .416.12.825.346 1.186.226.36.552.66.944.868l6.703 3.558a2.8 2.8 0 0 0 1.959.238c.327-.081.634-.22.903-.41.27-.19.495-.426.664-.696.17-.27.28-.568.324-.877a2.188 2.188 0 0 0-.066-.924 2.302 2.302 0 0 0-.446-.83 2.527 2.527 0 0 0-.758-.61ZM25.86.192c-5.103 0-10.09 1.391-14.334 3.998-4.242 2.606-7.55 6.31-9.502 10.644C.071 19.17-.44 23.938.556 28.54c.995 4.6 3.453 8.827 7.06 12.145 3.609 3.317 8.206 5.576 13.21 6.491a27.91 27.91 0 0 0 14.907-1.35c4.715-1.795 8.744-4.835 11.579-8.736 2.835-3.9 4.348-8.486 4.348-13.178-.007-6.288-2.728-12.317-7.565-16.764C39.258 2.7 32.7.2 25.86.192Zm0 42.695c-4.082 0-8.073-1.113-11.467-3.198s-6.04-5.049-7.602-8.516A17.558 17.558 0 0 1 5.617 20.21c.796-3.681 2.762-7.063 5.648-9.716C14.152 7.84 17.83 6.033 21.833 5.3A22.327 22.327 0 0 1 33.76 6.38c3.771 1.436 6.995 3.868 9.263 6.988 2.268 3.12 3.478 6.79 3.478 10.542-.006 5.031-2.183 9.854-6.052 13.412-3.87 3.557-9.116 5.558-14.588 5.564Z" fill="#fff"/></svg>
